rospo-icon-theme-classic-common/64x64/apps/lightworks.svg

<svg height="64" width="64" xmlns="http://www.w3.org/2000/svg"><path d="m6.8007812 5c-.3812654 0-.7444098.077787-1.0742188.2148438-.155922.0646-.3052496.143947-.4453124.234375-.7403124.4816972-1.2363578 1.3075802-1.2695312 2.2539062-.0011728.0334584-.0117188.0639018-.0117188.0976562v.1992188 50 .19922c0 1.551198 1.2495812 2.80078 2.8007812 2.80078h.195312 12.8046878.199219 37.199218c1.5512 0 2.800782-1.249582 2.800782-2.800782v-6.9375l-1.9375-2.542968.554688-39.304688c.021822-1.5510458-.920986-1.686622-2.109376-2.6835932l-2.109374-1.7304688h-34.398438-.199219-12.8046872z" opacity=".2"/><path d="m19.8 4v56h37.4c1.5512 0 2.8-1.2488 2.8-2.8v-6.937726l-1.936838-2.542274.552982-39.3055026c.021822-1.5510464-.919682-1.6877074-2.108072-2.6846786l-2.108072-1.7298188zm-14.0746094.2132814c-.155922.0646-.302906.144728-.4429688.235156.139424-.090402.2876304-.17055.4429688-.235156zm-.4621092.2460936c-.1461386.0959888-.2822068.2071754-.407422.328125.1252484-.1218436.2609816-.2315234.407422-.328125zm-.407422.328125c-.2518552.2432752-.4550934.5350748-.6015626.8585936.1453958-.3237774.3510656-.6149066.6015626-.8585936zm-.6015626.8585936c-.1466636.3239488-.2301572.6788582-.2433594 1.0554688.013182-.3760332.0979638-.731691.2433594-1.0554688zm-.2433594 1.0554688c-.0011728.0334584-.0109374.0646832-.0109374.0984376v.19961c0-.12047.0098-.184896.0109374-.2980476z" fill="#4f4f4f"/><path d="m19 50h14v2h-14z" opacity=".2"/><path d="m19 14h14v2h-14z" opacity=".2"/><path d="m6.8 4c-1.5174456 0-2.7363352 1.1974296-2.7890626 2.7015624-.001144.1131508-.0109374.1775774-.0109374.298047v50.0007806.19961c0 1.5512 1.2488 2.8 2.8 2.8h.196875 13.003125v-9h13.51211v-3h-13.51211v-33h13.51211v-3h-13.51211v-8h-13.003125z" fill="#858585"/><path d="m6.8007812 4c-.3793614 0-.7457329.0790825-1.0742187.2148438-.1559218.0646-.3052497.143947-.4453125.234375-.7403124.4816972-1.2363579 1.3075802-1.2695312 2.2539062-.0011728.0334584-.0117188.0639019-.0117188.0976562v.1992188.8007812c0-.0337543.010546-.0641978.0117188-.0976562.0331733-.946326.5292188-1.7722091 1.2695312-2.2539062.1400628-.090428.2893907-.169775.4453125-.234375.3284858-.1357608.6948574-.2148438 1.0742187-.2148438h.1953126 13.0039062 37.199219c1.5512 0 2.800781 1.2495812 2.800781 2.8007812v-1c0-1.5511999-1.249581-2.8007812-2.800781-2.8007812h-37.199219-13.0039062z" fill="#fff" opacity=".1"/><path d="m7 9v6h10v-6zm0 10v6h10v-6zm0 12v6h10v-6zm0 10v6h10v-6zm0 10v6h10v-6z" opacity=".2"/><path d="m7 8v6h10v-6zm0 10v6h10v-6zm0 12v6h10v-6zm0 10v6h10v-6zm0 10v6h10v-6z" fill="#fff"/><path d="m59.999266 33.191248c-5.689674 3.055844-11.344412 5.001612-16.234162 6.249918-.202696.06088-.429404.13946-.624992.1953-6.417626 1.832914-10.949074 8.152238-10.949076 8.152238l-.355462 3.17574c.575882.250436 5.968968 2.460978 13.12678.0078 7.182006-2.461472 14.314936-12.146788 15.036912-13.14436z" fill-rule="evenodd"/><path d="m51.325552 41.989962-.58007 3.843698-2.845666-2.01169-.13476 4.46869-3.736278-2.636684-.53515 4.960872-4.04682-3.486282-1.158188 4.068306-3.203084-3.710888-1.912084 3.173786-1.646464-3.798778-1.41209 2.855432c.1753.18712.35691.347474.53515.52343.445004.34493.966784.64257.966784.64257s5.782264 2.681968 13.345528.08984c3.836648-1.314924 7.625858-4.677092 10.464706-7.689352-.10914-.04282-.201686-.09234-.320308-.13086z" fill-rule="evenodd"/><ellipse cx="50.122" cy="24.72" opacity=".2" rx="3.838" ry="3.855"/><ellipse cx="48.36" cy="22.95" opacity=".2" rx=".944" ry=".948"/><path d="m60 31.911986c-5.689674 3.055844-11.345146 5.00161-16.234896 6.249918-.202696.06088-.429404.13946-.624992.1953-6.417626 1.832914-10.949074 8.431768-10.949076 8.431768l-.355462 3.17574c.575882.250438 5.968968 2.460978 13.12678.0078 7.182006-2.46142 14.315668-11.23494 15.037646-12.232512z" fill="#3f3f3f" fill-rule="evenodd"/><path d="m53.948828 5c-2.190582.7105394-27.454658 8.945301-36.73086 13.907032-9.6893644 5.182722-9.8404914 7.076446-8.707968 9.85742 1.132524 2.780974 4.553684 4.279898 6.315391 8.45136 1.761697 4.171456 14.344531 3.784376 14.344531 3.784376s15.312428.525512 30.830078-7.808782v-25.391406c0-1.5512-1.2488-2.8-2.8-2.8zm6.051172 33.6s-12.111846 14.042334-23.890234 14.4c-2.505064.0431-4.716058-1.148394-5.996484-3.282032 0 0-1.006334.15716-.81758 1.547656.965066 4.930218 9.278306 5.707132 11.312112 5.734376 4.595568-.0134 10.9015-1.28657 19.392186-5.192968z" opacity=".2"/><g fill-rule="evenodd"><path d="m52.979828 36.038196s-.07774.0116-.07814.0118c-13.901688 2.549186-23.732106 3.646968-23.732106 3.646968s-4.466534 1.440004-8.451062.593418l3.984322 5.792766 1.257798-3.603468 2.769494 3.98237 1.949194-4.109322 4.40424 4.361272 1.574198-4.992124 4.152288 3.98237 2.013646-5.435474 3.146442 3.412064 1.949196-4.992122 3.460892 2.40036 1.509744-4.781308z" opacity=".2"/><path d="m52.979828 35.039014s-.07774.0116-.07814.0118c-13.901688 2.549186-23.732106 3.646968-23.732106 3.646968s-4.466534 1.440004-8.451062.593418l3.984322 5.792766 1.257798-3.603468 2.769494 3.98237 1.949194-4.109322 4.40424 4.361272 1.574198-4.992124 4.152288 3.98237 2.013646-5.435474 3.146442 3.412064 1.949196-4.992122 3.460892 2.40036 1.509744-4.781308z" fill="#fff"/><path d="m51.325552 40.990228-.58007 3.8437-2.845666-2.011692-.13476 4.468692-3.736278-2.636684-.53515 4.960872-4.04682-3.486282-1.158188 4.068308-3.203084-3.710892-1.912084 3.173788-1.646464-3.798778-1.41209 2.855432c.1753.18712-.450338 1.154724-.2721 1.330678.445004.344932.15954 1.219176.15954 1.219176s8.20401 3.027934 15.767274.435802c3.836648-1.314924 7.625858-6.29159 10.464706-9.30385-.10914-.04282-1.008934-.207666-1.127556-.24618z" fill="#fff"/></g><path d="m53.948828 4c-2.190582.7105394-27.454658 8.945301-36.73086 13.907032-9.6893644 5.182722-9.8404914 7.076446-8.707968 9.85742 1.132524 2.780974 4.553684 4.279898 6.315391 8.45136 1.761697 4.171456 14.344531 3.784376 14.344531 3.784376s15.312428.525512 30.830078-7.808782v-25.391406c0-1.5512-1.2488-2.8-2.8-2.8zm6.051172 33.6s-12.111846 14.042334-23.890234 14.4c-2.505064.0431-4.716058-1.148394-5.996484-3.282032 0 0-1.006334.15716-.81758 1.547656.965066 4.930218 9.278306 5.707132 11.312112 5.734376 4.595568-.0134 10.9015-1.28657 19.392186-5.192968z" fill="#e7464c"/><circle cx="50" cy="24" fill="#3f3f3f" r="4"/><circle cx="48.5" cy="22.5" fill="#f8fcf9" r="1.5"/><path d="m53.949219 4c-2.190582.7105394-27.454267 8.944519-36.730469 13.90625-7.9379932 4.245935-9.4712401 6.28479-9.1445312 8.412109.3091193-1.818767 2.4470022-3.829683 9.1445312-7.412109 9.276202-4.961731 34.539887-13.1957106 36.730469-13.90625h3.25c1.5512 0 2.800781 1.2495813 2.800781 2.8007812v-1c0-1.5511999-1.249581-2.8007812-2.800781-2.8007812z" fill="#fff" opacity=".1"/></svg>

<svg xmlns="http://www.w3.org/2000/svg" width="64" height="64" version="1">
 <path style="opacity:0.2" d="M 6.8007812,5 C 6.4195158,5 6.0563714,5.077787 5.7265624,5.2148438 5.5706404,5.2794438 5.4213128,5.3587908 5.28125,5.4492188 4.5409376,5.930916 4.0448922,6.756799 4.0117188,7.703125 4.010546,7.7365834 4,7.7670268 4,7.8007812 L 4,8 4,58 4,58.19922 C 4,59.750418 5.2495812,61 6.8007812,61 L 6.9960932,61 19.800781,61 20,61 57.199218,61 C 58.750418,61 60,59.750418 60,58.199218 l 0,-6.9375 L 58.0625,48.71875 58.617188,9.414062 C 58.63901,7.8630162 57.696202,7.72744 56.507812,6.7304688 L 54.398438,5 20,5 19.800781,5 6.9960938,5 6.8007812,5 Z"/>
 <path style="fill:#4f4f4f" d="m 19.8,4 0,56 37.4,0 C 58.7512,60 60,58.7512 60,57.2 L 60,50.262274 58.063162,47.72 58.616144,8.4144974 C 58.637966,6.863451 57.696462,6.72679 56.508072,5.7298188 L 54.4,4 Z M 5.7253906,4.2132814 c -0.155922,0.0646 -0.302906,0.144728 -0.4429688,0.235156 0.139424,-0.090402 0.2876304,-0.17055 0.4429688,-0.235156 z M 5.2632814,4.459375 C 5.1171428,4.5553638 4.9810746,4.6665504 4.8558594,4.7875 4.9811078,4.6656564 5.116841,4.5559766 5.2632814,4.459375 Z M 4.8558594,4.7875 C 4.6040042,5.0307752 4.400766,5.3225748 4.2542968,5.6460936 4.3996926,5.3223162 4.6053624,5.031187 4.8558594,4.7875 Z M 4.2542968,5.6460936 C 4.1076332,5.9700424 4.0241396,6.3249518 4.0109374,6.7015624 4.0241194,6.3255292 4.1089012,5.9698714 4.2542968,5.6460936 Z M 4.0109374,6.7015624 C 4.0097646,6.7350208 4,6.7662456 4,6.8 L 4,6.99961 C 4,6.87914 4.0098,6.814714 4.0109374,6.7015624 Z"/>
 <rect style="opacity:0.2" width="14" height="2" x="19" y="50"/>
 <rect style="opacity:0.19999999" width="14" height="2" x="19" y="14"/>
 <path style="fill:#858585" d="M 6.8,4 C 5.2825544,4 4.0636648,5.1974296 4.0109374,6.7015624 4.0097934,6.8147132 4,6.8791398 4,6.9996094 L 4,57.00039 4,57.2 C 4,58.7512 5.2488,60 6.8,60 L 6.996875,60 20,60 l 0,-9 13.51211,0 0,-3 L 20,48 l 0,-33 13.51211,0 0,-3 L 20,12 20,4 6.996875,4 Z"/>
 <path style="opacity:0.1;fill:#ffffff" d="M 6.8007812 4 C 6.4214198 4 6.0550483 4.0790825 5.7265625 4.2148438 C 5.5706407 4.2794438 5.4213128 4.3587908 5.28125 4.4492188 C 4.5409376 4.930916 4.0448921 5.756799 4.0117188 6.703125 C 4.010546 6.7365834 4 6.7670269 4 6.8007812 L 4 7 L 4 7.8007812 C 4 7.7670269 4.010546 7.7365834 4.0117188 7.703125 C 4.0448921 6.756799 4.5409376 5.9309159 5.28125 5.4492188 C 5.4213128 5.3587908 5.5706407 5.2794438 5.7265625 5.2148438 C 6.0550483 5.079083 6.4214199 5 6.8007812 5 L 6.9960938 5 L 20 5 L 57.199219 5 C 58.750419 5 60 6.2495812 60 7.8007812 L 60 6.8007812 C 60 5.2495813 58.750419 4 57.199219 4 L 20 4 L 6.9960938 4 L 6.8007812 4 z"/>
 <path style="opacity:0.2" d="m 7,9 0,6 10,0 0,-6 z m 0,10 0,6 10,0 0,-6 z m 0,12 0,6 10,0 0,-6 z m 0,10 0,6 10,0 0,-6 z m 0,10 0,6 10,0 0,-6 z"/>
 <path style="fill:#ffffff" d="m 7,8 0,6 10,0 0,-6 z m 0,10 0,6 10,0 0,-6 z m 0,12 0,6 10,0 0,-6 z m 0,10 0,6 10,0 0,-6 z m 0,10 0,6 10,0 0,-6 z"/>
 <path style="fill-rule:evenodd" d="m 59.999266,33.191248 c -5.689674,3.055844 -11.344412,5.001612 -16.234162,6.249918 -0.202696,0.06088 -0.429404,0.13946 -0.624992,0.1953 -6.417626,1.832914 -10.949074,8.152238 -10.949076,8.152238 l -0.355462,3.17574 c 0.575882,0.250436 5.968968,2.460978 13.12678,0.0078 7.182006,-2.461472 14.314936,-12.146788 15.036912,-13.14436 z"/>
 <path style="fill-rule:evenodd" d="m 51.325552,41.989962 -0.58007,3.843698 -2.845666,-2.01169 -0.13476,4.46869 -3.736278,-2.636684 -0.53515,4.960872 -4.04682,-3.486282 -1.158188,4.068306 -3.203084,-3.710888 -1.912084,3.173786 -1.646464,-3.798778 -1.41209,2.855432 c 0.1753,0.18712 0.35691,0.347474 0.53515,0.52343 0.445004,0.34493 0.966784,0.64257 0.966784,0.64257 0,0 5.782264,2.681968 13.345528,0.08984 3.836648,-1.314924 7.625858,-4.677092 10.464706,-7.689352 -0.10914,-0.04282 -0.201686,-0.09234 -0.320308,-0.13086 z"/>
 <ellipse style="opacity:0.2" cx="50.122" cy="24.72" rx="3.838" ry="3.855"/>
 <ellipse style="opacity:0.2" cx="48.36" cy="22.95" rx=".944" ry=".948"/>
 <path style="fill:#3f3f3f;fill-rule:evenodd" d="m 60,31.911986 c -5.689674,3.055844 -11.345146,5.00161 -16.234896,6.249918 -0.202696,0.06088 -0.429404,0.13946 -0.624992,0.1953 -6.417626,1.832914 -10.949074,8.431768 -10.949076,8.431768 l -0.355462,3.17574 c 0.575882,0.250438 5.968968,2.460978 13.12678,0.0078 C 52.14436,47.511092 59.278022,38.737572 60,37.74 Z"/>
 <path style="opacity:0.2" d="M 53.948828,5 C 51.758246,5.7105394 26.49417,13.945301 17.217968,18.907032 7.5286036,24.089754 7.3774766,25.983478 8.51,28.764452 c 1.132524,2.780974 4.553684,4.279898 6.315391,8.45136 1.761697,4.171456 14.344531,3.784376 14.344531,3.784376 0,0 15.312428,0.525512 30.830078,-7.808782 L 60,7.8 C 60,6.2488 58.7512,5 57.2,5 Z M 60,38.6 c 0,0 -12.111846,14.042334 -23.890234,14.4 -2.505064,0.0431 -4.716058,-1.148394 -5.996484,-3.282032 0,0 -1.006334,0.15716 -0.81758,1.547656 C 30.260768,56.195842 38.574008,56.972756 40.607814,57 45.203382,56.9866 51.509314,55.71343 60,51.807032 Z"/>
 <path style="opacity:0.2;fill-rule:evenodd" d="m 52.979828,36.038196 c 0,0 -0.07774,0.0116 -0.07814,0.0118 C 39,38.599182 29.169582,39.696964 29.169582,39.696964 c 0,0 -4.466534,1.440004 -8.451062,0.593418 l 3.984322,5.792766 1.257798,-3.603468 2.769494,3.98237 1.949194,-4.109322 4.40424,4.361272 1.574198,-4.992124 4.152288,3.98237 2.013646,-5.435474 3.146442,3.412064 1.949196,-4.992122 3.460892,2.40036 1.509744,-4.781308 z"/>
 <path style="fill:#ffffff;fill-rule:evenodd" d="m 52.979828,35.039014 c 0,0 -0.07774,0.0116 -0.07814,0.0118 C 39,37.6 29.169582,38.697782 29.169582,38.697782 c 0,0 -4.466534,1.440004 -8.451062,0.593418 l 3.984322,5.792766 1.257798,-3.603468 2.769494,3.98237 1.949194,-4.109322 4.40424,4.361272 1.574198,-4.992124 4.152288,3.98237 2.013646,-5.435474 3.146442,3.412064 1.949196,-4.992122 3.460892,2.40036 1.509744,-4.781308 z"/>
 <path style="fill:#ffffff;fill-rule:evenodd" d="m 51.325552,40.990228 -0.58007,3.8437 -2.845666,-2.011692 -0.13476,4.468692 -3.736278,-2.636684 -0.53515,4.960872 -4.04682,-3.486282 -1.158188,4.068308 -3.203084,-3.710892 -1.912084,3.173788 -1.646464,-3.798778 -1.41209,2.855432 c 0.1753,0.18712 -0.450338,1.154724 -0.2721,1.330678 0.445004,0.344932 0.15954,1.219176 0.15954,1.219176 0,0 8.20401,3.027934 15.767274,0.435802 3.836648,-1.314924 7.625858,-6.29159 10.464706,-9.30385 -0.10914,-0.04282 -1.008934,-0.207666 -1.127556,-0.24618 z"/>
 <path style="fill:#e7464c" d="M 53.948828,4 C 51.758246,4.7105394 26.49417,12.945301 17.217968,17.907032 7.5286036,23.089754 7.3774766,24.983478 8.51,27.764452 c 1.132524,2.780974 4.553684,4.279898 6.315391,8.45136 1.761697,4.171456 14.344531,3.784376 14.344531,3.784376 0,0 15.312428,0.525512 30.830078,-7.808782 L 60,6.8 C 60,5.2488 58.7512,4 57.2,4 Z M 60,37.6 c 0,0 -12.111846,14.042334 -23.890234,14.4 -2.505064,0.0431 -4.716058,-1.148394 -5.996484,-3.282032 0,0 -1.006334,0.15716 -0.81758,1.547656 C 30.260768,55.195842 38.574008,55.972756 40.607814,56 45.203382,55.9866 51.509314,54.71343 60,50.807032 Z"/>
 <circle style="fill:#3f3f3f" cx="50" cy="24" r="4"/>
 <circle style="fill:#f8fcf9" cx="48.5" cy="22.5" r="1.5"/>
 <path style="opacity:0.1;fill:#ffffff" d="M 53.949219,4 C 51.758637,4.7105394 26.494952,12.944519 17.21875,17.90625 9.2807568,22.152185 7.7475099,24.19104 8.0742188,26.318359 8.3833381,24.499592 10.521221,22.488676 17.21875,18.90625 26.494952,13.944519 51.758637,5.7105394 53.949219,5 l 3.25,0 C 58.750419,5 60,6.2495813 60,7.8007812 l 0,-1 C 60,5.2495813 58.750419,4 57.199219,4 Z"/>
</svg>
